round/svg/art_track.svg

<svg xmlns="http://www.w3.org/2000/svg" width="24" height="24"><path d="M21 13h-6c-.55 0-1-.45-1-1s.45-1 1-1h6c.55 0 1 .45 1 1s-.45 1-1 1zm0-6h-6c-.55 0-1 .45-1 1s.45 1 1 1h6c.55 0 1-.45 1-1s-.45-1-1-1zm-6 10h6c.55 0 1-.45 1-1s-.45-1-1-1h-6c-.55 0-1 .45-1 1s.45 1 1 1zm-3-8v6c0 1.1-.9 2-2 2H4c-1.1 0-2-.9-2-2V9c0-1.1.9-2 2-2h6c1.1 0 2 .9 2 2zm-2.1 5.2l-1.26-1.68a.508.508 0 0 0-.8-.01L6.5 14.26l-.85-1.03a.5.5 0 0 0-.78.01l-.74.95a.5.5 0 0 0 .39.81H9.5a.5.5 0 0 0 .4-.8z" fill="currentColor"/></svg>

<?xml version="1.0" encoding="utf-8"?>
<!-- Generator: Adobe Illustrator 19.1.0, SVG Export Plug-In . SVG Version: 6.00 Build 0)  -->
<svg version="1.1" xmlns="http://www.w3.org/2000/svg" xmlns:xlink="http://www.w3.org/1999/xlink" x="0px" y="0px" width="24px"
	 height="24px" viewBox="0 0 24 24" enable-background="new 0 0 24 24" xml:space="preserve">
<g id="Bounding_Boxes" display="none">
	<path display="inline" fill="none" d="M0,0h24v24H0V0z"/>
</g>
<g id="Rounded" fill="currentColor">
	<path d="M21,13h-6c-0.55,0-1-0.45-1-1v0c0-0.55,0.45-1,1-1h6c0.55,0,1,0.45,1,1v0C22,12.55,21.55,13,21,13z M21,7h-6
		c-0.55,0-1,0.45-1,1v0c0,0.55,0.45,1,1,1h6c0.55,0,1-0.45,1-1v0C22,7.45,21.55,7,21,7z M15,17h6c0.55,0,1-0.45,1-1v0
		c0-0.55-0.45-1-1-1h-6c-0.55,0-1,0.45-1,1v0C14,16.55,14.45,17,15,17z M12,9v6c0,1.1-0.9,2-2,2H4c-1.1,0-2-0.9-2-2V9
		c0-1.1,0.9-2,2-2h6C11.1,7,12,7.9,12,9z M9.9,14.2l-1.26-1.68c-0.2-0.26-0.59-0.27-0.8-0.01L6.5,14.26l-0.85-1.03
		c-0.2-0.25-0.58-0.24-0.78,0.01l-0.74,0.95C3.87,14.52,4.11,15,4.52,15H9.5C9.91,15,10.15,14.53,9.9,14.2z"/>
</g>
</svg>
